assets/images/logo.svg

<?xml version="1.0" encoding="UTF-8"?>
<svg width="176px" height="56px" viewBox="0 0 176 56" version="1.1" xmlns="http://www.w3.org/2000/svg" xmlns:xlink="http://www.w3.org/1999/xlink">
    <!-- Generator: Sketch 46.2 (44496) - http://www.bohemiancoding.com/sketch -->
    <title>logo</title>
    <desc>Created with Sketch.</desc>
    <defs></defs>
    <g id="Symbols" stroke="none" stroke-width="1" fill="none" fill-rule="evenodd">
        <g id="Header">
            <g id="logo">
                <path d="M10.4661493,37.4675 C10.1840597,36.90625 9.71391045,36.28125 9.24376119,35.90625 C8.83629851,35.59375 8.08531343,35.1875 6.89426866,35.1875 C4.82561194,35.1875 3.38507463,36.4675 3.38507463,38.405 C3.38507463,39.2175 3.60322388,39.685 4.16740299,40.2175 C4.79426866,40.84125 5.57785075,41.18625 6.36143284,41.53 L8.36614925,42.40375 C9.58853731,42.935 10.7168955,43.4975 11.5945075,44.3725 C12.6601791,45.435 13.0989851,46.65375 13.0989851,48.1525 C13.0989851,51.995 10.2467463,54.5575 6.48680597,54.5575 C5.10770149,54.5575 3.38507463,54.27625 1.94328358,52.87 C0.908955224,51.87 0.282089552,50.43375 0,49.18375 L2.25671642,48.55875 C2.41343284,49.6525 2.91492537,50.59 3.50919403,51.215 C4.41814925,52.12125 5.45247761,52.37125 6.51814925,52.37125 C9.36913433,52.37125 10.7168955,50.34 10.7168955,48.24625 C10.7168955,47.30875 10.434806,46.4975 9.68256716,45.81 C9.08704478,45.2475 8.2721194,44.8725 7.17510448,44.3725 L5.29576119,43.4975 C4.48083582,43.1225 3.44650746,42.68625 2.50620896,41.77875 C1.59850746,40.905 1.06567164,39.93625 1.06567164,38.375 C1.06567164,35.155 3.54179104,33 6.92561194,33 C8.20943284,33 9.24376119,33.25 10.2780896,33.9375 C11.1243582,34.5 11.8452537,35.34375 12.315403,36.24875 L10.4661493,37.4675 Z M37.1060597,37.93625 C36.4478507,37.28125 35.4448657,36.5 34.379194,35.99875 C33.2834328,35.5 31.9983582,35.1875 30.7759701,35.1875 C25.9503582,35.1875 22.3784776,39.06125 22.3784776,43.8725 C22.3784776,49.5275 26.9846866,52.37125 30.8073134,52.37125 C32.2177612,52.37125 33.5968657,51.965 34.6926269,51.40125 C35.8836716,50.80875 36.7299403,50.0275 37.1060597,49.6525 L37.1060597,52.5275 C34.7866567,54.1825 32.3744776,54.5575 30.8073134,54.5575 C24.602597,54.5575 19.9963881,49.87125 19.9963881,43.84125 C19.9963881,37.62375 24.6652836,33 30.9326866,33 C32.1864179,33 34.598597,33.15625 37.1060597,35.0625 L37.1060597,37.93625 Z M47.4524776,41.81075 L58.1693731,41.81075 L58.1693731,33.3445 L60.4875224,33.3445 L60.4875224,54.182 L58.1693731,54.182 L58.1693731,43.997 L47.4524776,43.997 L47.4524776,54.182 L45.1330746,54.182 L45.1330746,33.3445 L47.4524776,33.3445 L47.4524776,41.81075 Z M72.997003,33.3435 C74.4074507,33.3435 76.506197,33.4385 78.0733612,34.49975 C79.2957493,35.31225 80.3601672,36.906 80.3601672,39.1235 C80.3601672,42.30975 78.2614209,44.6535 75.097003,44.87225 L81.7392716,54.18225 L78.9196299,54.18225 L72.558197,45.05975 L71.9626746,45.05975 L71.9626746,54.18225 L69.6432716,54.18225 L69.6432716,33.3435 L72.997003,33.3435 Z M71.9626746,42.99725 L73.435809,42.99725 C76.3181373,42.99725 78.0420179,41.62225 78.0420179,39.186 C78.0420179,38.02975 77.6972418,36.87475 76.3808239,36.12475 C75.4405254,35.5935 74.3748537,35.531 73.3731224,35.531 L71.9626746,35.531 L71.9626746,42.99725 Z M99.9811881,35.531375 L91.4583224,35.531375 L91.4583224,41.716375 L99.7304418,41.716375 L99.7304418,43.903875 L91.4583224,43.903875 L91.4583224,51.995125 L99.9811881,51.995125 L99.9811881,54.182625 L89.1389194,54.182625 L89.1389194,33.343875 L99.9811881,33.343875 L99.9811881,35.531375 Z" id="schre" fill="#B1B71B"></path>
                <path d="M131.723624,53.465375 C129.87437,54.401625 128.369893,54.589125 127.116161,54.589125 C123.262191,54.589125 120.661952,53.277875 118.906728,51.559125 C117.026131,49.746625 115.648281,46.997875 115.648281,43.654125 C115.648281,40.374125 117.026131,37.624125 118.906728,35.812875 C120.755982,34.031625 123.450251,32.814125 126.709952,32.814125 C128.089057,32.814125 129.68631,33.094125 131.723624,33.969125 L131.723624,39.531625 C130.657952,38.405375 129.059445,37.312875 126.835325,37.312875 C125.080101,37.312875 123.669654,37.874125 122.572639,38.936625 C121.412937,40.061625 120.599266,41.749125 120.599266,43.749125 C120.599266,45.904125 121.476878,47.435375 122.415922,48.340375 C122.855982,48.777875 124.359206,50.090375 126.929355,50.090375 C128.183087,50.090375 129.87437,49.746625 131.723624,47.934125 L131.723624,53.465375 Z M144.169164,41.967625 L151.312925,33.282625 L157.204209,33.282625 L148.74403,43.155125 L157.862418,54.121375 L151.658955,54.121375 L144.169164,44.872625 L144.169164,54.121375 L139.343552,54.121375 L139.343552,33.282625 L144.169164,33.282625 L144.169164,41.967625 Z" id="ck" fill="#1F2325"></path>
                <path d="M59.6095669,3.16963739 C62.3672091,3.16963739 65.2802821,3.57633045 67.8499032,6.04777287 C69.6987769,7.82971415 70.8569866,10.2698725 70.8569866,13.5221656 C70.8569866,16.8069941 69.7301138,19.1833329 68.0065874,20.9039574 C65.1235978,23.8121256 61.5211144,24.0311142 59.7662512,24.0311142 L53,24.0311142 L53,3.16963739 L59.6095669,3.16963739 Z M57.8246204,19.965435 L59.1081774,19.965435 C60.1109564,19.965435 62.3045354,19.8715827 63.8713776,18.5576513 C64.9995039,17.6191289 65.9070189,15.8359362 65.9070189,13.5221656 C65.9070189,11.2709631 64.9995039,9.83064399 64.184746,9.01850924 C62.6179039,7.45430517 60.5810091,7.2353166 59.1081774,7.2353166 L57.8246204,7.2353166 L57.8246204,19.965435 Z M96.7409683,5.73455665 C98.7151894,7.64288561 100,10.3946334 100,13.6156424 C100,16.3999257 98.997221,19.2455257 96.7409683,21.4354114 C94.7993375,23.3112049 92.1670427,24.5 88.6585698,24.5 C84.7427179,24.5 82.0790862,22.9357959 80.512244,21.4354114 C78.5079396,19.5583665 77.2544658,16.7440506 77.2544658,13.6782106 C77.2544658,10.6749388 78.6019501,7.64288561 80.4809072,5.76584073 C81.8910651,4.35930844 84.4920231,2.70000076 88.6585698,2.70000076 C91.916348,2.70000076 94.6426533,3.70109137 96.7409683,5.73455665 Z M84.0533073,8.92428159 C83.1445389,9.80023586 82.2044336,11.3331558 82.2044336,13.6469265 C82.2044336,15.5552555 82.8311704,17.0869241 84.115981,18.3382873 C85.4634652,19.6209347 86.9663802,20.0589118 88.5958961,20.0589118 C90.7255479,20.0589118 92.2297164,19.2768098 93.2324954,18.2769705 C94.0472533,17.4948685 95.0487788,16.0245167 95.0487788,13.6156424 C95.0487788,11.4570408 94.1726007,9.86280403 93.2324954,8.92428159 C92.1983796,7.92319098 90.5375269,7.14108895 88.6272329,7.14108895 C86.809696,7.14108895 85.1801802,7.79930602 84.0533073,8.92428159 Z" id="do" fill="#1F2325"></path>
                <path d="M124.780687,7.32275076 C124.497343,6.76150076 124.028448,6.13650076 123.558299,5.76150076 C123.150836,5.44900076 122.399851,5.04275076 121.207552,5.04275076 C119.140149,5.04275076 117.699612,6.32275076 117.699612,8.26025076 C117.699612,9.07275076 117.917761,9.54025076 118.48194,10.0727508 C119.108806,10.6965008 119.892388,11.0415008 120.67597,11.3852508 L122.680687,12.2590008 C123.903075,12.7902508 125.031433,13.3527508 125.907791,14.2277508 C126.973463,15.2902508 127.413522,16.5090008 127.413522,18.0077508 C127.413522,21.8502508 124.561284,24.4127508 120.80009,24.4127508 C119.422239,24.4127508 117.699612,24.1315008 116.256567,22.7252508 C115.223493,21.7252508 114.596627,20.2890008 114.313284,19.0390008 L116.57,18.4140008 C116.726716,19.5077508 117.229463,20.4452508 117.823731,21.0702508 C118.732687,21.9765008 119.767015,22.2265008 120.832687,22.2265008 C123.683672,22.2265008 125.031433,20.1952508 125.031433,18.1015008 C125.031433,17.1640008 124.749343,16.3527508 123.997104,15.6652508 C123.401582,15.1027508 122.586657,14.7277508 121.489642,14.2277508 L119.610299,13.3527508 C118.795373,12.9777508 117.761045,12.5415008 116.820746,11.6340008 C115.913045,10.7602508 115.380209,9.79150076 115.380209,8.23025076 C115.380209,5.01025076 117.856328,2.85525076 121.240149,2.85525076 C122.52397,2.85525076 123.558299,3.10525076 124.592627,3.79275076 C125.437642,4.35525076 126.159791,5.19900076 126.62994,6.10400076 L124.780687,7.32275076 Z M135.438155,3.19912576 L139.700842,3.19912576 C141.800842,3.19912576 144.7772,3.41787576 147.408782,5.63537576 C149.320722,7.23037576 150.981916,9.88537576 150.981916,13.6341258 C150.981916,18.0078758 148.81923,20.3516258 147.314752,21.6316258 C145.404066,23.2566258 143.398096,24.0378758 139.668245,24.0378758 L135.438155,24.0378758 L135.438155,3.19912576 Z M137.757558,21.8503758 L139.794872,21.8503758 C141.454812,21.8503758 143.742872,21.6641258 145.778931,19.9766258 C147.346096,18.6641258 148.599827,16.6028758 148.599827,13.6341258 C148.599827,8.63537576 145.090633,5.38662576 139.794872,5.38662576 L137.757558,5.38662576 L137.757558,21.8503758 Z M170.541128,18.1637508 L161.64089,18.1637508 L159.134681,24.0375008 L156.564531,24.0375008 L166.184412,2.20000076 L175.5548,24.0375008 L172.984651,24.0375008 L170.541128,18.1637508 Z M169.632173,15.9775008 L166.121725,7.63500076 L162.549845,15.9775008 L169.632173,15.9775008 Z" id="sda" fill="#B1B71B"></path>
                <polygon id="line" fill="#1F2325" points="107 56 108 56 108 0 107 0"></polygon>
            </g>
        </g>
    </g>
</svg>

<svg class="logo" width="176" height="72" viewBox="0 0 176 72" xmlns="http://www.w3.org/2000/svg"><g id="Symbols" fill="none" fill-rule="evenodd"><g id="Header"><g id="logo"><path d="M10.466 37.468c-.282-.562-.752-1.187-1.222-1.562-.408-.312-1.16-.718-2.35-.718-2.068 0-3.51 1.28-3.51 3.217 0 .813.22 1.28.783 1.813.627.623 1.41.968 2.194 1.312l2.006.874c1.223.53 2.35 1.093 3.23 1.968 1.064 1.063 1.503 2.282 1.503 3.78 0 3.843-2.853 6.405-6.613 6.405-1.38 0-3.102-.28-4.544-1.687C.91 51.87.283 50.434 0 49.184l2.257-.625c.156 1.093.658 2.03 1.252 2.655.908.906 1.942 1.156 3.008 1.156 2.85 0 4.2-2.03 4.2-4.124 0-.937-.283-1.748-1.035-2.436-.596-.563-1.41-.938-2.508-1.438l-1.88-.874c-.814-.375-1.848-.812-2.79-1.72-.906-.873-1.44-1.842-1.44-3.403 0-3.22 2.477-5.375 5.86-5.375 1.284 0 2.32.25 3.353.938.846.562 1.567 1.406 2.037 2.31l-1.85 1.22zm26.64.468c-.658-.655-1.66-1.436-2.727-1.937-1.097-.5-2.382-.813-3.604-.813-4.826 0-8.398 3.874-8.398 8.686 0 5.655 4.607 8.498 8.43 8.498 1.41 0 2.79-.405 3.885-.97 1.19-.59 2.037-1.372 2.413-1.747v2.875c-2.32 1.654-4.732 2.03-6.3 2.03-6.203 0-10.81-4.687-10.81-10.717 0-6.216 4.67-10.84 10.937-10.84 1.253 0 3.666.156 6.173 2.063v2.873zm10.346 3.875H58.17v-8.466h2.318v20.838h-2.32V43.997H47.453v10.185h-2.32V33.344h2.32v8.467zm25.545-8.467c1.41 0 3.51.095 5.076 1.157 1.223.812 2.287 2.406 2.287 4.623 0 3.187-2.1 5.53-5.263 5.75l6.642 9.31h-2.82l-6.362-9.123h-.595v9.122h-2.32v-20.84l3.354.002zm-1.034 9.654h1.473c2.882 0 4.606-1.375 4.606-3.81 0-1.157-.345-2.312-1.66-3.062-.94-.532-2.007-.594-3.01-.594h-1.41v7.467zM99.98 35.53H91.46v6.186h8.272v2.188h-8.272v8.09h8.523v2.19H89.14v-20.84h10.84v2.187z" id="schre" fill="#B1B71B"/><path d="M131.724 53.465c-1.85.937-3.354 1.124-4.608 1.124-3.854 0-6.454-1.312-8.21-3.03-1.88-1.813-3.258-4.562-3.258-7.906 0-3.28 1.378-6.03 3.26-7.84 1.848-1.782 4.542-3 7.802-3 1.38 0 2.976.28 5.014 1.155v5.562c-1.066-1.127-2.665-2.22-4.89-2.22-1.754 0-3.164.562-4.26 1.625-1.16 1.125-1.975 2.812-1.975 4.812 0 2.154.877 3.685 1.816 4.59.44.438 1.943 1.75 4.513 1.75 1.253 0 2.944-.343 4.794-2.156v5.53zm12.445-11.497l7.143-8.685h5.89l-8.46 9.872 9.12 10.966h-6.204l-7.49-9.247v9.248h-4.826V33.284h4.825v8.685z" id="ck" fill="#1E2324"/><path d="M59.61 3.17c2.757 0 5.67.406 8.24 2.878 1.85 1.782 3.007 4.222 3.007 7.474 0 3.285-1.127 5.66-2.85 7.382-2.883 2.908-6.486 3.127-8.24 3.127H53V3.17h6.61zm-1.785 16.795h1.283c1.003 0 3.197-.093 4.763-1.407 1.13-.94 2.037-2.722 2.037-5.036 0-2.25-.907-3.69-1.722-4.503-1.567-1.566-3.604-1.785-5.077-1.785h-1.283v12.73zM96.74 5.735c1.975 1.908 3.26 4.66 3.26 7.88 0 2.785-1.003 5.63-3.26 7.82-1.94 1.876-4.573 3.065-8.08 3.065-3.917 0-6.58-1.564-8.148-3.065-2.004-1.877-3.258-4.69-3.258-7.757 0-3.003 1.348-6.035 3.227-7.912C81.89 4.36 84.493 2.7 88.66 2.7c3.256 0 5.983 1 8.08 3.035zm-12.687 3.19c-.908.875-1.85 2.408-1.85 4.722 0 1.908.628 3.44 1.913 4.69 1.347 1.284 2.85 1.722 4.48 1.722 2.13 0 3.634-.783 4.636-1.783.815-.782 1.817-2.252 1.817-4.66 0-2.16-.877-3.754-1.818-4.693-1.034-1-2.694-1.783-4.605-1.783-1.817 0-3.447.66-4.574 1.784z" id="do" fill="#1E2324"/><path d="M124.78 7.323c-.283-.56-.752-1.186-1.222-1.56-.407-.314-1.158-.72-2.35-.72-2.068 0-3.508 1.28-3.508 3.217 0 .813.218 1.28.782 1.813.627.624 1.41.97 2.194 1.312l2.005.874c1.223.53 2.35 1.093 3.228 1.968 1.065 1.062 1.506 2.28 1.506 3.78 0 3.842-2.853 6.405-6.614 6.405-1.378 0-3.1-.28-4.543-1.688-1.034-1-1.66-2.436-1.944-3.686l2.257-.626c.157 1.094.66 2.03 1.254 2.656.91.907 1.943 1.157 3.01 1.157 2.85 0 4.197-2.032 4.197-4.125 0-.938-.28-1.75-1.033-2.437-.595-.562-1.41-.937-2.507-1.437l-1.88-.875c-.815-.375-1.85-.81-2.79-1.72-.907-.873-1.44-1.84-1.44-3.403 0-3.22 2.476-5.375 5.86-5.375 1.284 0 2.318.25 3.353.938.845.562 1.567 1.406 2.037 2.31l-1.85 1.22zM135.44 3.2h4.263c2.1 0 5.077.218 7.71 2.435 1.91 1.595 3.572 4.25 3.572 8 0 4.373-2.163 6.717-3.667 7.997-1.91 1.625-3.917 2.406-7.647 2.406h-4.23V3.198zm2.32 18.65h2.037c1.66 0 3.948-.186 5.984-1.873 1.566-1.313 2.82-3.374 2.82-6.343 0-5-3.51-8.247-8.805-8.247h-2.037V21.85zm32.783-3.686h-8.9l-2.505 5.874h-2.57l9.62-21.838 9.37 21.838h-2.57l-2.444-5.874zm-.908-2.186l-3.51-8.343-3.572 8.343h7.082z" id="sda" fill="#B1B71B"/><path id="line" fill="#1E2324" d="M107 56h1V0h-1z"/><path d="M4 71.48h1.234l1.202-2.82h4.27l1.174 2.82h1.232L8.616 61 4 71.48zm4.586-7.87l1.684 4H6.872l1.714-4zm15.076-2.13c.677 0 1.684.044 2.436.554.587.39 1.097 1.154 1.097 2.22 0 1.528-1.006 2.653-2.526 2.758l3.187 4.467h-1.352L23.452 67.1h-.286v4.377h-1.113v-10h1.61zm-.496 4.632h.706c1.384 0 2.21-.66 2.21-1.83 0-.553-.164-1.11-.796-1.47-.45-.253-.963-.283-1.443-.283h-.677v3.582zm21.63-2.428c-.316-.315-.797-.69-1.307-.93-.528-.24-1.145-.39-1.73-.39-2.317 0-4.03 1.86-4.03 4.167 0 2.715 2.21 4.08 4.044 4.08.677 0 1.34-.195 1.865-.465.57-.285.976-.66 1.156-.84v1.38c-1.112.794-2.27.974-3.022.974-2.977 0-5.187-2.25-5.187-5.142 0-2.984 2.24-5.204 5.247-5.204.602 0 1.76.076 2.962.99v1.38zm10.686 1.86h5.143v-4.065h1.112v10h-1.112V66.59h-5.143v4.887H54.37v-10h1.112v4.063zm16.37 5.935v-10h1.112v10H71.85zm13.688-8.95v8.95h-1.113v-8.95H81.99v-1.05h5.986v1.05H85.54zm16.668 0h-4.09v2.968h3.97v1.05h-3.97v3.88h4.09v1.05h-5.203v-10h5.203v1.05zm17.24 1.154c-.316-.315-.797-.69-1.308-.93-.526-.24-1.143-.39-1.73-.39-2.315 0-4.03 1.86-4.03 4.167 0 2.715 2.21 4.08 4.046 4.08.677 0 1.337-.195 1.864-.465.572-.285.977-.66 1.158-.84v1.38c-1.113.794-2.27.974-3.022.974-2.977 0-5.188-2.25-5.188-5.142 0-2.984 2.24-5.204 5.248-5.204.602 0 1.76.076 2.962.99v1.38zm12.04-1.155v8.95h-1.114v-8.95h-2.436v-1.05h5.984v1.05h-2.435zm16.666 0h-4.09v2.968h3.97v1.05h-3.97v3.88h4.09v1.05h-5.2v-10h5.2v1.05zm14.052.93c-.134-.272-.36-.57-.587-.752-.195-.15-.556-.344-1.128-.344-.99 0-1.683.615-1.683 1.544 0 .39.104.616.375.87.3.3.676.465 1.052.63l.96.42c.588.255 1.13.524 1.55.944.512.51.723 1.093.723 1.815 0 1.842-1.37 3.072-3.172 3.072-.663 0-1.49-.136-2.18-.81-.498-.48-.798-1.17-.934-1.77l1.083-.3c.075.525.315.975.602 1.274.435.435.93.556 1.442.556 1.368 0 2.015-.976 2.015-1.978 0-.452-.136-.84-.497-1.17-.284-.27-.676-.45-1.202-.69l-.903-.42c-.39-.18-.888-.39-1.338-.825-.436-.42-.692-.884-.692-1.633 0-1.545 1.19-2.58 2.812-2.58.617 0 1.112.12 1.61.452.405.268.75.673.977 1.108l-.888.585z" id="architectes" fill="#1E2324"/></g></g></g></svg>
